X: 7935
T: Concertina, The
R: reel
M: 4/4
K: Cmajor
|:EF|G2EG AGEF|(3GAG EG AGEG|~A2BG AGBG|AGBG AGEF|
G2EG AGEF|~G2EG AGED|(3EFG AB cdcA|GEDE C2:|
|:EF|Gc ~c2 ec ~c2|GccG AGEG|(3ABA BG AGBG|AGBG AGEF|
Gc ~c2 ec ~c2|GccG AGED|(3EFG AB cdcA|GEDE C2:|

